packages/kaspersky-hexa-ui-icons/src/iconsSVGs/48/QRCode.svg

<svg width="48" height="48" viewBox="0 0 48 48" fill="none" xmlns="http://www.w3.org/2000/svg">
<path d="M13.074 13.6044C13.074 13.0521 13.5218 12.6044 14.074 12.6044H16.6393C17.1915 12.6044 17.6393 13.0521 17.6393 13.6044V16.1696C17.6393 16.7219 17.1915 17.1696 16.6393 17.1696H14.074C13.5218 17.1696 13.074 16.7219 13.074 16.1696V13.6044Z" fill="black"/>
<path fill-rule="evenodd" clip-rule="evenodd" d="M7.67773 10.2081C7.67773 8.55124 9.02088 7.2081 10.6777 7.2081H20.0355C21.6924 7.2081 23.0355 8.55124 23.0355 10.2081V19.5659C23.0355 21.2227 21.6924 22.5659 20.0355 22.5659H10.6777C9.02088 22.5659 7.67773 21.2228 7.67773 19.5659V10.2081ZM10.6777 9.2081C10.1255 9.2081 9.67773 9.65581 9.67773 10.2081V19.5659C9.67773 20.1182 10.1255 20.5659 10.6777 20.5659H20.0355C20.5878 20.5659 21.0355 20.1182 21.0355 19.5659V10.2081C21.0355 9.65581 20.5878 9.2081 20.0355 9.2081H10.6777Z" fill="black"/>
<path fill-rule="evenodd" clip-rule="evenodd" d="M7.67776 28.4341C7.67776 26.7773 9.02091 25.4341 10.6778 25.4341H20.0356C21.6924 25.4341 23.0356 26.7772 23.0356 28.4341V37.7919C23.0356 39.4488 21.6924 40.7919 20.0356 40.7919H10.6778C9.02091 40.7919 7.67776 39.4488 7.67776 37.7919V28.4341ZM10.6778 27.4341C10.1255 27.4341 9.67776 27.8818 9.67776 28.4341V37.7919C9.67776 38.3442 10.1255 38.7919 10.6778 38.7919H20.0356C20.5878 38.7919 21.0356 38.3442 21.0356 37.7919V28.4341C21.0356 27.8818 20.5878 27.4341 20.0356 27.4341H10.6778Z" fill="black"/>
<path fill-rule="evenodd" clip-rule="evenodd" d="M29.2022 7.2081C27.5454 7.2081 26.2022 8.55124 26.2022 10.2081V19.5659C26.2022 21.2228 27.5454 22.5659 29.2022 22.5659H38.56C40.2169 22.5659 41.56 21.2227 41.56 19.5659V10.2081C41.56 8.55124 40.2169 7.2081 38.56 7.2081H29.2022ZM28.2022 10.2081C28.2022 9.65581 28.6499 9.2081 29.2022 9.2081H38.56C39.1123 9.2081 39.56 9.65581 39.56 10.2081V19.5659C39.56 20.1182 39.1123 20.5659 38.56 20.5659H29.2022C28.6499 20.5659 28.2022 20.1182 28.2022 19.5659V10.2081Z" fill="black"/>
<path d="M28.2022 26.4341C27.6499 26.4341 27.2022 26.8818 27.2022 27.4341V29.9993C27.2022 30.5516 27.6499 30.9993 28.2022 30.9993H30.7674C31.3197 30.9993 31.7674 30.5516 31.7674 29.9993V27.4341C31.7674 26.8818 31.3197 26.4341 30.7674 26.4341H28.2022Z" fill="black"/>
<path d="M31.5985 31.8304C31.5985 31.2781 32.0462 30.8304 32.5985 30.8304H35.1637C35.716 30.8304 36.1637 31.2781 36.1637 31.8304V34.3956C36.1637 34.9479 35.716 35.3956 35.1637 35.3956H32.5985C32.0462 35.3956 31.5985 34.9479 31.5985 34.3956V31.8304Z" fill="black"/>
<path d="M36.9948 26.2652C36.4425 26.2652 35.9948 26.7129 35.9948 27.2652V29.8304C35.9948 30.3827 36.4425 30.8304 36.9948 30.8304H39.56C40.1123 30.8304 40.56 30.3827 40.56 29.8304V27.2652C40.56 26.7129 40.1123 26.2652 39.56 26.2652H36.9948Z" fill="black"/>
<path d="M27.2022 36.3956C27.2022 35.8433 27.6499 35.3956 28.2022 35.3956H30.7674C31.3197 35.3956 31.7674 35.8433 31.7674 36.3956V38.9608C31.7674 39.5131 31.3197 39.9608 30.7674 39.9608H28.2022C27.6499 39.9608 27.2022 39.5131 27.2022 38.9608V36.3956Z" fill="black"/>
<path d="M36.9947 35.3955C36.4424 35.3955 35.9947 35.8432 35.9947 36.3955V38.9607C35.9947 39.513 36.4424 39.9607 36.9947 39.9607H39.5599C40.1122 39.9607 40.5599 39.513 40.5599 38.9607V36.3955C40.5599 35.8432 40.1122 35.3955 39.5599 35.3955H36.9947Z" fill="black"/>
</svg>

<svg xmlns="http://www.w3.org/2000/svg" width="48" height="48" fill="none" viewBox="0 0 48 48"><path fill="#000" d="M13.074 13.6044c0-.5523.4478-1 1-1h2.5653c.5522 0 1 .4477 1 1v2.5652c0 .5523-.4478 1-1 1H14.074c-.5522 0-1-.4477-1-1z"/><path fill="#000" fill-rule="evenodd" d="M7.678 10.208c0-1.657 1.343-3 3-3h9.358c1.657 0 3 1.343 3 3v9.358c0 1.657-1.343 3-3 3h-9.358c-1.657 0-3-1.343-3-3zm3-1c-.552 0-1 .448-1 1v9.358c0 .552.448 1 1 1h9.358c.552 0 1-.448 1-1v-9.358c0-.552-.448-1-1-1zm-3 19.226c0-1.657 1.343-3 3-3h9.358c1.657 0 3 1.343 3 3v9.358c0 1.657-1.343 3-3 3h-9.358c-1.657 0-3-1.343-3-3zm3-1c-.552 0-1 .448-1 1v9.358c0 .552.448 1 1 1h9.358c.552 0 1-.448 1-1v-9.358c0-.552-.448-1-1-1zM29.202 7.208c-1.657 0-3 1.343-3 3v9.358c0 1.657 1.343 3 3 3h9.358c1.657 0 3-1.343 3-3v-9.358c0-1.657-1.343-3-3-3zm-1 3c0-.552.448-1 1-1h9.358c.552 0 1 .448 1 1v9.358c0 .552-.448 1-1 1h-9.358c-.552 0-1-.448-1-1z" clip-rule="evenodd"/><path fill="#000" d="M28.202 26.434c-.552 0-1 .448-1 1v2.565c0 .552.448 1 1 1h2.565c.552 0 1-.448 1-1v-2.565c0-.552-.448-1-1-1zm3.397 5.396c0-.552.448-1 1-1h2.565c.552 0 1 .448 1 1v2.565c0 .552-.448 1-1 1h-2.565c-.552 0-1-.448-1-1zm5.396-5.565c-.552 0-1 .448-1 1v2.565c0 .552.448 1 1 1h2.565c.552 0 1-.448 1-1v-2.565c0-.552-.448-1-1-1zm-9.793 10.131c0-.552.448-1 1-1h2.565c.552 0 1 .448 1 1v2.565c0 .552-.448 1-1 1h-2.565c-.552 0-1-.448-1-1zm9.793-1c-.552 0-1 .448-1 1v2.565c0 .552.448 1 1 1h2.565c.552 0 1-.448 1-1v-2.565c0-.552-.448-1-1-1z"/></svg>
